X:0401
T:The Job of Journey Work.
M:2/4
L:1/16
Q:1/4=90 "Andantino"
I: :: ::
Z:Jack Campin * www.campin.me.uk * 2009
K:E Minor
g2| d2B2G2B2        |Td4  d2g2   |d2B2 (cB)(AG)|TA4 (G2A2)|
   (BA)(GA) .B.A.G.F| E3(FG2A2)  |B2e2-e2^d2   | e6      ::
d2|.g2.g2   (ag)(fe)|.d2.d2(d2B2)|g2g2 agfg    |Te4  d2B2 |
   .g2.g2   (ag)(fe)|.d2.d2.d2g2 |d2B2 (cBAG)  |TA4 (G2A2)|
   (BAGA)   .B.A.G.F| E3FG2A2    |B2e2-e2^d2   | e6      :|

